usr/share/icons/biglinux-icons-material/16/actions/list-add-user.svg

<svg xmlns="http://www.w3.org/2000/svg" viewBox="0 0 16 16"><path d="M8 2a3 3 0 0 0-3 3 3 3 0 0 0 3 3 3 3 0 0 0 3-3 3 3 0 0 0-3-3m0 1a2 2 0 0 1 2 2 2 2 0 0 1-2 2 2 2 0 0 1-2-2 2 2 0 0 1 2-2m0 6a5 4.5 0 0 0-5 4.5 5 4.5 0 0 0 .033.5H8v-1H4.045A4 3.5 0 0 1 8 10zm3 0v2H9v1h2v2h1v-2h2v-1h-2V9z" style="fill:currentColor;fill-opacity:1;stroke:none;color:#dedede"/></svg>

<svg xmlns="http://www.w3.org/2000/svg" viewBox="0 0 16 16">
  <defs id="defs3051">
    <style type="text/css" id="current-color-scheme">
      .ColorScheme-Text {
        color:#dedede;
      }
      </style>
  </defs>
 <path style="fill:currentColor;fill-opacity:1;stroke:none" 
     d="M8 2A3 3 0 0 0 5 5 3 3 0 0 0 8 8 3 3 0 0 0 11 5 3 3 0 0 0 8 2M8 3A2 2 0 0 1 10 5 2 2 0 0 1 8 7 2 2 0 0 1 6 5 2 2 0 0 1 8 3M8 9A5 4.5 0 0 0 3 13.5 5 4.5 0 0 0 3.033203 14H8V13H4.045A4 3.5 0 0 1 8 10zM11 9V11H9V12H11V14H12V12H14V11H12V9z"
     class="ColorScheme-Text"
     />
</svg>
